X: 40985
T: Trip To Dublin, The
R: reel
M: 4/4
K: Aminor
E2|ABcd efec|dedB G2E2|ABcd efec|d3e d2cB|
ABcd e^dec|dedB GBcd|ecdB cABG|A2AB A2:|
|:cd|ec~c2 Gcec|dB~B2 GBdB|cAAG ABAG|E2ED E2cd|
ec~c2 Gcec|dB~B2 GBcd|ecdB cABG|A2AB A2:|
B,2|EFGA BcBG|ABAF D2B,2|EFGA BcBG|A3B A2GF|
EFGA BcBG|ABAF DFGA|BGAF GEFD|E2EF E2:|
|:GA|BG~G2 DGBG|AF~F2 DFAF|GEED EFED|B,2B,A, B,2GA|
BG~G2 DGBG|AF~F2 DFGA|BGAF GEFD|E2EF E2:|

